neru-dark-classic/22x22/panel/pomodoneapp-indicator.svg

<svg xmlns="http://www.w3.org/2000/svg" width="22" height="22" version="1.1">
 <defs>
  <style id="current-color-scheme" type="text/css">
   .ColorScheme-Text { color:#d3dae3; } .ColorScheme-Highlight { color:#5294e2; }
  </style>
 </defs>
 <path style="fill:currentColor" class="ColorScheme-Text" d="M 11,2.9999998 A 8,8 0 0 0 2.9999999,11 8,8 0 0 0 11,19 8,8 0 0 0 19,11 8,8 0 0 0 11,2.9999998 Z m -2.5000001,4 H 13.5 c 0.831,0 1.5,0.669 1.5,1.5 V 13.5 C 15,14.331 14.331,15 13.5,15 H 8.4999999 c -0.831,0 -1.5,-0.669 -1.5,-1.5 V 8.4999998 c 0,-0.831 0.669,-1.5 1.5,-1.5 z m 1.09961,2 c -0.3324,0 -0.59961,0.2672094 -0.59961,0.5996094 V 12.40039 c 0,0.3324 0.26721,0.59961 0.59961,0.59961 H 12.400391 C 12.732791,13 13,12.73279 13,12.40039 V 9.5996092 c 0,-0.3324 -0.267209,-0.5996094 -0.599609,-0.5996094 z"/>
</svg>

<svg xmlns="http://www.w3.org/2000/svg" width="22" height="22"><defs><style id="current-color-scheme" type="text/css"></style></defs><path d="M11 3a8 8 0 0 0-8 8 8 8 0 0 0 8 8 8 8 0 0 0 8-8 8 8 0 0 0-8-8zM8.5 7h5c.831 0 1.5.669 1.5 1.5v5c0 .831-.669 1.5-1.5 1.5h-5c-.831 0-1.5-.669-1.5-1.5v-5C7 7.669 7.669 7 8.5 7zm1.1 2c-.333 0-.6.267-.6.6v2.8c0 .333.267.6.6.6h2.8c.333 0 .6-.267.6-.6V9.6c0-.333-.267-.6-.6-.6z" fill="currentColor" color="#d3dae3"/></svg>
